src/16/actions/distribute-horizontal-margin.svg

<svg xmlns="http://www.w3.org/2000/svg" width="16" height="16" viewBox="0 0 16 16">
 <defs>
  <style id="current-color-scheme" type="text/css">
   .ColorScheme-Text { color:#565656; } .ColorScheme-Highlight { color:#5294e2; }
  </style>
 </defs>
 <path style="fill:currentColor" class="ColorScheme-Text" d="M 1 1.0039062 L 1 15.003906 L 15 15.003906 L 15 1.0039062 L 1 1.0039062 z M 3 3.0039062 L 13 3.0039062 L 13 13.003906 L 3 13.003906 L 3 3.0039062 z M 4 4.0039062 L 4 12.003906 L 7 12.003906 L 7 4.0039062 L 4 4.0039062 z M 9 4.0039062 L 9 12.003906 L 12 12.003906 L 12 4.0039062 L 9 4.0039062 z"/>
</svg>

<svg xmlns="http://www.w3.org/2000/svg" width="16" height="16"><defs><style id="current-color-scheme" type="text/css"></style></defs><path d="M1 1.004v14h14v-14H1zm2 2h10v10H3v-10zm1 1v8h3v-8H4zm5 0v8h3v-8H9z" fill="currentColor" color="#565656"/></svg>
